resources/svg/sort-down-o.svg

<svg xmlns="http://www.w3.org/2000/svg" viewBox="0 0 15 15" fill="none"><path d="M3.5 14.5L3.14645 14.8536C3.34171 15.0488 3.65829 15.0488 3.85355 14.8536L3.5 14.5ZM3.85355 14.8536L6.85355 11.8536L6.14645 11.1464L3.14645 14.1464L3.85355 14.8536ZM3.85355 14.1464L0.853553 11.1464L0.146447 11.8536L3.14645 14.8536L3.85355 14.1464ZM3 0V14.5H4V0H3ZM9 4H15V3H9V4ZM9 8H13V7H9V8ZM9 12H11V11H9V12Z" fill="black"/></svg>

<svg xmlns="http://www.w3.org/2000/svg" viewBox="0 0 15 15" fill="none"><path d="M3.5 14.5l-.354.354a.5.5 0 00.708 0L3.5 14.5zm.354.354l3-3-.708-.708-3 3 .708.708zm0-.708l-3-3-.708.708 3 3 .708-.708zM3 0v14.5h1V0H3zm6 4h6V3H9v1zm0 4h4V7H9v1zm0 4h2v-1H9v1z" fill="currentColor"/></svg>
